X:104
T: GOENSTIGER HERR UND FREUND
N: E1142A
O: Europa, Mitteleuropa, Deutschland
R: Trink -, Zech - Lied
M: 4/4
L: 1/8
K: G
B2 | B3BB2B2 | B6
B2 | B2A2B2^c2 | d6
A2 | A3AA2A2 | A6
A2 | B2G2G2F2 | G6

@@@ Tune index: 4788
